X: 1240
T: Barney McCoy
C:J.D. Murphy, published 1881
B: australian traditional tunes wiki
M:4/4
L:1/8
R: Reel
Q: 1/4=100
K:G
V:1 
d2|"G"G2G>Bd2g2|"D"f2"C"e2z4|"D"A3B cB cd|fe dc "G"B2B<d|
g>g gdB2A>G|"C"e>e ecA2Bc|"D" dg gBd2c>A|"G"G6zd|
"G"d2G>G GB dg|"D"f2"C"ez"D"A3B|cB cd fe d>c|"G"B4z2Bd|
gg g<dB2AG|"C"ee e>c "D"A2Bc|dd gBd2c>A|"G"G6z2||
% abcbook-tune_id 6342d53aaae2f8b156e1f9f1


% abcbook-boost 0
% abcbook-tablature 
% abcbook-transpose 
% abcbook-lastupdated 1665324355498
% abcbook-soundfonts 
% abcbook-repeats 1
% NFF Book 2017

